svgs/sharp-thin/swap.svg

<svg xmlns="http://www.w3.org/2000/svg" viewBox="0 0 640 512"><!--! Font Awesome Pro 6.6.0 by @fontawesome - https://fontawesome.com License - https://fontawesome.com/license (Commercial License) Copyright 2024 Fonticons, Inc. --><path d="M32 110.6l80-80 80 80 0 17.4L32 128l0-17.4zm68.7-91.3L16 104l0 24 0 16 16 0 72 0 0 328 0 8 8 0 208 0 8 0 0-8 0-424 192 0 0 320-72 0-16 0 0 16 0 24 84.7 84.7L528 504l11.3-11.3L624 408l0-24 0-16-16 0-72 0 0-328 0-8-8 0L320 32l-8 0 0 8 0 424-192 0 0-320 72 0 16 0 0-16 0-24L123.3 19.3 112 8 100.7 19.3zM448 401.4l0-17.4 160 0 0 17.4-80 80-80-80z"/></svg>

<svg xmlns="http://www.w3.org/2000/svg" viewBox="0 0 640 512"><!--! Font Awesome Pro 6.5.2 by @fontawesome - https://fontawesome.com License - https://fontawesome.com/license (Commercial License) Copyright 2024 Fonticons, Inc. --><path d="M32 110.6l80-80 80 80V128H32V110.6zm68.7-91.3L16 104v24 16H32h72V472v8h8H320h8v-8V48l192 0 0 320H448 432v16 24l84.7 84.7L528 504l11.3-11.3L624 408V384 368H608 536V40 32h-8L320 32h-8v8V464H120V144h72 16V128 104L123.3 19.3 112 8 100.7 19.3zM448 401.4V384H608v17.4l-80 80-80-80z"/></svg>
